src/assets/money.svg

<svg fill="none" height="40" viewBox="0 0 32 40" width="32" xmlns="http://www.w3.org/2000/svg"><g fill="#fff"><path d="m22.4997 9.979h-13.33336c-.5 0-.83333.3333-.83333.8333s.33333.8334.83333.8334h13.33336c.5 0 .8333-.3334.8333-.8334s-.3333-.8333-.8333-.8333z"/><path d="m8.4999 7.81266c0 .33334.33334.5.66667.5h13.33333c.3333 0 .6667-.16666.6667-.5l3.3333-6.66666c.1667-.333337.1667-.666671-.1667-1.000004-.1666-.1666666-.5-.1666666-.8333 0l-6.1667 3.000004-2.8333-2.833337c-.3333-.3333336-.8333-.3333336-1.1667 0l-3 2.833337-6.16663-3.000004c-.33333-.1666666-.66667-.1666666-1 0-.33333.166667-.16667.666667 0 1.000004z"/><path d="m23.1667 13.6456c-.1667-.1667-.5-.3333-.6667-.3333h-13.33333c-.16667 0-.5.1666-.66667.3333-.33333.3333-8.5 9-8.5 13.8333 0 6.8334 7.16667 12.5 15.8333 12.5 8.6667 0 15.8334-5.6666 15.8334-12.5 0-4.8333-8.1667-13.5-8.5-13.8333zm-6.5 19.6667v.8333c0 .5-.3334.8333-.8334.8333s-.8333-.3333-.8333-.8333v-.8333c-1.8333-.3334-3.1667-1.5-3.3333-3 0-.5.3333-.8334.8333-.8334s.8333.3334.8333.8334c0 .6666.8334 1.3333 1.6667 1.5v-3.3334c-2.1667-.5-3.3333-1.6666-3.3333-3.1666 0-1.6667 1.5-3 3.3333-3.3334v-.8333c0-.5.3333-.8333.8333-.8333s.8334.3333.8334.8333v.5c1.8333.3333 3.1666 1.5 3.3333 3 0 .5-.3333.8333-.8333.8333s-.8334-.3333-.8334-.8333c0-.6667-.8333-1.3333-1.6666-1.5v3.3333c2.1666.5 3.3333 1.6667 3.3333 3.1667 0 2-1.5 3.3333-3.3333 3.6667z"/><path d="m16.667 28.4785v3c1-.1666 1.6667-.8333 1.6667-1.5 0-.6666-.5-1.1667-1.6667-1.5z"/><path d="m13.333 24.9788c0 .6666.5 1.1666 1.6667 1.5v-3c-1 .1666-1.6667.8333-1.6667 1.5z"/></g></svg>

<svg width="32" height="40" viewBox="0 0 32 40" fill="none" xmlns="http://www.w3.org/2000/svg">
<path d="M22.4997 9.979H9.16634C8.66634 9.979 8.33301 10.3123 8.33301 10.8123C8.33301 11.3123 8.66634 11.6457 9.16634 11.6457H22.4997C22.9997 11.6457 23.333 11.3123 23.333 10.8123C23.333 10.3123 22.9997 9.979 22.4997 9.979Z" fill="white"/>
<path d="M8.4999 7.81266C8.4999 8.146 8.83324 8.31266 9.16657 8.31266H22.4999C22.8332 8.31266 23.1666 8.146 23.1666 7.81266L26.4999 1.146C26.6666 0.812663 26.6666 0.479329 26.3332 0.145996C26.1666 -0.0206706 25.8332 -0.0206706 25.4999 0.145996L19.3332 3.146L16.4999 0.312663C16.1666 -0.0206706 15.6666 -0.0206706 15.3332 0.312663L12.3332 3.146L6.16657 0.145996C5.83324 -0.0206706 5.4999 -0.0206706 5.16657 0.145996C4.83324 0.312663 4.9999 0.812663 5.16657 1.146L8.4999 7.81266Z" fill="white"/>
<path d="M23.1667 13.6456C23 13.4789 22.6667 13.3123 22.5 13.3123H9.16667C9 13.3123 8.66667 13.4789 8.5 13.6456C8.16667 13.9789 0 22.6456 0 27.4789C0 34.3123 7.16667 39.9789 15.8333 39.9789C24.5 39.9789 31.6667 34.3123 31.6667 27.4789C31.6667 22.6456 23.5 13.9789 23.1667 13.6456ZM16.6667 33.3123V34.1456C16.6667 34.6456 16.3333 34.9789 15.8333 34.9789C15.3333 34.9789 15 34.6456 15 34.1456V33.3123C13.1667 32.9789 11.8333 31.8123 11.6667 30.3123C11.6667 29.8123 12 29.4789 12.5 29.4789C13 29.4789 13.3333 29.8123 13.3333 30.3123C13.3333 30.9789 14.1667 31.6456 15 31.8123V28.4789C12.8333 27.9789 11.6667 26.8123 11.6667 25.3123C11.6667 23.6456 13.1667 22.3123 15 21.9789V21.1456C15 20.6456 15.3333 20.3123 15.8333 20.3123C16.3333 20.3123 16.6667 20.6456 16.6667 21.1456V21.6456C18.5 21.9789 19.8333 23.1456 20 24.6456C20 25.1456 19.6667 25.4789 19.1667 25.4789C18.6667 25.4789 18.3333 25.1456 18.3333 24.6456C18.3333 23.9789 17.5 23.3123 16.6667 23.1456V26.4789C18.8333 26.9789 20 28.1456 20 29.6456C20 31.6456 18.5 32.9789 16.6667 33.3123Z" fill="white"/>
<path d="M16.667 28.4785V31.4785C17.667 31.3119 18.3337 30.6452 18.3337 29.9785C18.3337 29.3119 17.8337 28.8118 16.667 28.4785Z" fill="white"/>
<path d="M13.333 24.9788C13.333 25.6454 13.833 26.1454 14.9997 26.4788V23.4788C13.9997 23.6454 13.333 24.3121 13.333 24.9788Z" fill="white"/>
</svg>
